X: 23437
T: Leslie's March
R: jig
M: 6/8
K: Dmajor
|:d3 d3|dcB ABc|dcB AGF|G2F E2D|
e3 efg|fed eag|~f3 d2A|def e2d:|
|:fed eAA|fed eAA|gfe fBB|gfe fBB|
fed eAA|fed eag|~f3 d2A|def e2d:|
|:dfa dfa|dfa afd|egb egb|egb bge|
dfa dfa|dfa a2g|~f3 d2A|def e2d:|

